X: 10293
T: Doinna
R: waltz
M: 3/4
K: Eminor
e3- (4:3edef g2e|d2c/A/ B3 A2G|=f3 He6|
e3- (4:3edef g2e|d2c/A/ B2E A2B/c/|B2A HA6||
e3- (4:3edef g2e|d2c/A/ B3 A2G|=f3 He6|
e3- (4:3edef g2e|d2c/A/ B2E A2B/c/|B-B/A/B/c/ d2c/B/ HA2||
E|A2B c2e B-{c}B/A/G|g3 e2d ^c2d|e3 d3- Hd2A|
d2e =f3 e(5:4{f}e/d/c/B/d/|c3 B2A G2B/c/|B2A A3- HA2||
E|A2B c2e B-{c}B/A/G|g2a e2d ^c2d|e3 d3- Hd2A|
d2e =f2a e(5:4{f}e/d/c/B/d/|c3 B2A G2B/c/|B2A HA6||

